X:4325
T:Molly Oxford
O:england
R:Reel
R:Morris
M:4/4
K:D
d2cd e2f2|e2dc Bcd2|c2A2 B2G2|A2AG FGA2|\
B2AG F2E2|F2A2 d3A |F2ED E2A2|(D4 D4) :|
|:\
AGFE D2EF|G2A2 B2c2|dcBA G2A2|Bcdf e2dc|\
d2Bd c2Ac|B2GB A3A |AGFE D2EF|(G4 G4):|


